X:296
T: Fang feng zheng
N: C0701
O: China,Jiangsu
S: MM,]
R: Wuge]
M: 2/4
L: 1/16
K: E
cecBG2FG | B6e2 | cecBG2FG | B8 |
B3ce4 | f3ec2B2 | cecBG2FG | B8 |
B3ce4 | f2e2c2B2 | G2B2cBce | B8 |
e2e2c2cB | GBcGB4 |
e2eec2cB | GBcGB4 |
F2F4GB | F2F4GB | F3GB2e2 | c2B2z2F2 | G3BFEC2 | E8 |
e2e2cecB | GBcGB4 |
e2e2cecB | GBcGB4 |
GBcGB4
GBcGB4
F2G2F2E2 | F2G2F2E2 | FGFEFGFE | FGFEFGFE | F8 |
F2F4GB | F2F4GB | F3GB2e2 | c2B2z2F2 | G3BFEC2 | E8

@@@ Tune index: 6297
